!!!OTL: Treu und Lieb hab ich dir geschworen (2-12), S. 26
!!!id: K1105
**kern
*clefG2
*k[]
*G:
{8dd
8dd
=1
4a
8a
8a
4a
4a
=2
4a
4dd
8dd
8cc}
=3
{8b
8a
=4
4g
4g
8g
8g
8g
8g
=5
4g
4ee
4dd}
=6
{4g
=7
4g
4ee
4ee
4ee
=8
4ee
8dd
8cc
4b}
=9
{8dd
8ee
=10
4.dd
8dd
4cc
8dd
8cc
=11
2b}
4r
=12
{4g
=13
4g
4ee
4ee
4ee
=14
4ee
8dd
8cc
4b}
=15
{8dd
8ee
=16
4.dd
8dd
4cc
8dd
8cc
=17
2b}
4r
==
*-
!!!minrhy: 8
!!!meters: 4/4 ]  ZZ[6
!!!cut: Treu und Lieb hab ich dir geschworen (2-12), S. 26
!!!reg: Luxemburg
!!!trd: KINTZELE, Guillaume: An der Ucht, Bd. 2, Luxemburg 1927
!!!rhy1: XX  X_XXX_X_  X_X_XX
!!!rhy2: XX  X_X_XXXX  X_X_X_
!!!key: K1105  08  G 4/4 ]  ZZ[6
!!!mod: SECHSTONSKALA DUR ?]  AMBITUS[6
!!!kad: 453333
!!!akz: 2225_1115_1663_543_1663_543_
!!!fot: 'a__as"b__c__b__c__
!!!for: 'a__b__c__d__c__d__
!!!fok: 'Vd_Va_^a_\__^a_\__
!! PHRAS[AUFTAKTIG]
!!!fkt: Treue?, ???
!!!bem: in der Quelle mit einer 2. Stimme versehen
!! KINTZELE
!! PR[14] 2K[0] 2G[6] 3K[8] 3G[5] 4A[2] 4Ü[0] 5A[0] 6K[2] 6G[0]
!! 7K[2] 7G[0] 8A[2] MEHR[0] SI[25] ABS[63] SR[6] SP[19]
!! ST[12] 2k[11] 2g[41] 3k[8] 3g[0] 4d[0] 4ü[0] 5d[0] 6k[0] 6g[0]
!! 7k[0] 7g[0] 8d[0] mehr[0] si[60] dm[-35] sr[52] sp[8]
!! 1F[13] 2F[58] 3F[7] 4F[6] LF[0] 2P[7] 3P[9] 4P[0] TRI[0] DF[6] AB[69]
!! TF[0] U3K[0] U3[0] U4[0] U4Ü[0] U5[0] U6K[0] U6[0] U7K[0] U7[0]
!! N1[8] N2K[0] N2[8] N3K[0] N3[9] N4[8] N4Ü[0] N5[27] N6K[0] N6[16]
!!!n7k: 0] N7[14] O1[8] O2K[0] O2[3] O3K[0] O3[0] HÖ[0
